X:1
T:Duke of Hamilton's Reel
T:Duke of Hamilton's Reel
T:Caledonian Country Dances c.1754
C:Caledonian Country Dances c.1754
L:1/8
M:4/4
K:G
V:1 treble 
V:1
"G" G>B d>B"Am" A2 [ce]2 |"G" G>B de/f/ g>d B>G |"C" c>e"G" B>d"Am" A>A [ce]2 | %3
"G" d/c/B/A/ G>B d2"Em" [GBe]2 |"G" G>B d>B"Am" A2 [ce]2 |"G" G>B de/f/ g>d B>G | %6
"C" c>e"G" B>d"Am" A>A [ce]2 |"G" d/c/B/A/ G>B d2"Em" [GBe]2 ||"G" d>B g>B"Am" A>A [ce]2 | %9
"G" d>B g>B d>e g>a |"Em" b/a/g/f/ g>B"Am" A>A [ce]2 |"G" de/f/ g>B d2"Em" [GBe]2 | %12
"G" d>B g>B"Am" A>A [ce]2 |"G" d>B g>B d>e g>a |"Em" b/a/g/f/ g>B"Am" A>A [ce]2 | %15
"G" de/f/ g>B"D7" [Fd]2"G" [B,G]2 | %16

